site/static/images/icons/svg/info-primary.svg

<svg height="30" viewBox="0 0 30 30" width="30" xmlns="http://www.w3.org/2000/svg"><g fill="none" fill-rule="evenodd" transform=""><circle cx="15" cy="15" fill="#45c8f1" r="15"/><path d="m14.8429803 9.93618267c-.2980311 0-.5249376-.07069601-.6807266-.21209016s-.2336823-.36021515-.2336823-.65646956v-.48477752c0-.29625441.0778933-.5150754.2336823-.65646955s.3826955-.21209017.6807266-.21209017h.5486453c.2980311 0 .521551.07069602.6705665.21209017s.2235222.36021514.2235222.65646955v.48477752c0 .29625441-.0745067.51507541-.2235222.65646956s-.3725354.21209016-.6705665.21209016zm-.8331281 11.67505853v-8.0796253c0-.2962544.0778933-.5184419.2336823-.6665691.1557889-.1481272.3826955-.2221897.6807266-.2221897h.3860837c.2980311 0 .521551.0740625.6705665.2221897.1490156.1481272.2235222.3703147.2235222.6665691v8.0796253c0 .2962544-.0745066.5184419-.2235222.6665691-.1490155.1481272-.3725354.2221897-.6705665.2221897h-.3860837c-.2980311 0-.5249377-.0740625-.6807266-.2221897-.155789-.1481272-.2336823-.3703147-.2336823-.6665691z" fill="#fff"/></g></svg>

<?xml version="1.0" encoding="UTF-8"?>
<svg width="30px" height="30px" viewBox="0 0 30 30" version="1.1" xmlns="http://www.w3.org/2000/svg" xmlns:xlink="http://www.w3.org/1999/xlink">
    <!-- Generator: Sketch 48.2 (47327) - http://www.bohemiancoding.com/sketch -->
    <title>info-primary</title>
    <desc>Created with Sketch.</desc>
    <defs></defs>
    <g id="icons" stroke="none" stroke-width="1" fill="none" fill-rule="evenodd" transform="translate(-292.000000, -765.000000)">
        <g id="info-primary" transform="translate(292.000000, 765.000000)">
            <g id="Info" fill="#45C8F1">
                <circle id="Oval" cx="15" cy="15" r="15"></circle>
            </g>
            <path d="M14.8429803,9.93618267 C14.5449492,9.93618267 14.3180427,9.86548666 14.1622537,9.72409251 C14.0064647,9.58269836 13.9285714,9.36387736 13.9285714,9.06762295 L13.9285714,8.58284543 C13.9285714,8.28659102 14.0064647,8.06777003 14.1622537,7.92637588 C14.3180427,7.78498173 14.5449492,7.71428571 14.8429803,7.71428571 L15.3916256,7.71428571 C15.6896567,7.71428571 15.9131766,7.78498173 16.0621921,7.92637588 C16.2112076,8.06777003 16.2857143,8.28659102 16.2857143,8.58284543 L16.2857143,9.06762295 C16.2857143,9.36387736 16.2112076,9.58269836 16.0621921,9.72409251 C15.9131766,9.86548666 15.6896567,9.93618267 15.3916256,9.93618267 L14.8429803,9.93618267 Z M14.0098522,21.6112412 L14.0098522,13.5316159 C14.0098522,13.2353615 14.0877455,13.013174 14.2435345,12.8650468 C14.3993234,12.7169196 14.62623,12.6428571 14.9242611,12.6428571 L15.3103448,12.6428571 C15.6083759,12.6428571 15.8318958,12.7169196 15.9809113,12.8650468 C16.1299269,13.013174 16.2044335,13.2353615 16.2044335,13.5316159 L16.2044335,21.6112412 C16.2044335,21.9074956 16.1299269,22.1296831 15.9809113,22.2778103 C15.8318958,22.4259375 15.6083759,22.5 15.3103448,22.5 L14.9242611,22.5 C14.62623,22.5 14.3993234,22.4259375 14.2435345,22.2778103 C14.0877455,22.1296831 14.0098522,21.9074956 14.0098522,21.6112412 Z" id="i" fill="#FFFFFF"></path>
        </g>
    </g>
</svg>
